!!!LAR: Susato, Tielman
!!!OPR: Het Derde Mussyck Boexken, Vol 3
!!!OTL: Reihent&auml;nze Branlen
!!!OMV: 1. Die vier Branlen
!!!PPR: Tielman Susato
!!!PPP@EN: Belgium; Antwerp
!!!PDT: 1551
**kern	**kern	**kern	**kern
*Ifltdb	*Ifltdt	*Ifltda	*Ifltds
*>[A,A,B,B,C,C]	*>[A,A,B,B,C,C]	*>[A,A,B,B,C,C]	*>[A,A,B,B,C,C]
*>norep[A,B,C]	*>norep[A,B,C]	*>norep[A,B,C]	*>norep[A,B,C]
*>A	*>A	*>A	*>A
=1-	=1-	=1-	=1-
*clefF4	*clefGv2	*clefGv2	*clefGv2
*met(C)	*met(C)	*met(C)	*met(C)
*M4/4	*M4/4	*M4/4	*M4/4
*MM120	*MM120	*MM120	*MM120
4C/	4G/	4c\	4e\
8C/L	8G/L	8c\L	8e\L
8D/J	8F/J	8A\J	8d\J
4.AA/	8E/L	4.A/	8c\L
.	8D/	.	8B\
.	8E/	.	8c\
8FF/	8F/J	8A/	8d\J
=2	=2	=2	=2
4C/	4G/	4c\	(8e\L
.	.	.	8f\)
4C/	4G/	4c\	8g\
.	.	.	8f\J
4C/	4G/	4c\	4e\
4GG/	4G/	4B\	4d\
=3	=3	=3	=3
4C/	4G/	4c\	4e\
8C/L	8G/L	8c\L	8e\L
8D/J	8F/J	8A\J	8d\J
4.AA/	8E/L	4.A/	8c\L
.	8D/	.	8B\
.	8E/	.	8c\
8FF/	8F/J	8A/	8d\J
=4	=4	=4	=4
4C/	4G/	4c\	(8e\L
.	.	.	8f\J)
4GG/	4G/	4B\	4g\
2GG/	2G/	2B\	2d\
=5:|!|:	=5:|!|:	=5:|!|:	=5:|!|:
*>B	*>B	*>B	*>B
4C/	4G/	4c\	(8e\L
.	.	.	8f\)
8C/L	8G/L	8c\L	8g\
8FF/J	8F/J	8A\J	8a\J
4.C/	8G/L	4.c\	8g\L
.	8A/	.	8f\
.	8G/	.	8e\
8D\	8F/J	8F/	8d\J
=6	=6	=6	=6
4C/	4E/	4G/	4e\
4AA/	4E/	4A/	4c\
4AA/	4E/	4A/	4c\
4FF/	4A/	4c\	4f\
=7	=7	=7	=7
4FF/	4A/	4c\	4f\
4C/	4G/	4c\	4e\
2GG/	2G/	2B\	2d\
=8:|!|:	=8:|!|:	=8:|!|:	=8:|!|:
*>C	*>C	*>C	*>C
(8C/L	4G/	4c\	(8e\L
8D/J)	.	.	8f\J)
4E\	8G/L	4B\	4g\
.	8G/J	.	.
4AA/	4A/	4c\	(8e\L
.	.	.	8f\J)
4E\	4G/	4B\	4g\
=9	=9	=9	=9
4AA/	4A/	4c\	(8e\L
.	.	.	8f\J)
4E\	4G/	8B\L	4g\
.	.	8c\J	.
4D\	8A/L	(8d\L	4f\
.	8F/J	8B\J)	.
4C/	4G/	4c\	4e\
=10	=10	=10	=10
4FF/	4c\	4A/	4a\
8FF/L	8c\L	4F/	8a\L
8GG/J	8B\J	.	8g\J
(8AA/L	4A/	4c\	4f\
8BB/J)	.	.	.
4C/	4G/	4c\	4e\
=11	=11	=11	=11
4FF/	4c\	4A/	4a\
8FF/L	8c\L	4F/	8a\L
8GG/J	8B\J	.	8g\J
(8AA/L	4A/	4c\	4f\
8BB/J)	.	.	.
4C/	4G/	4c\	4e\
=12	=12	=12	=12
4C/	4G/	4c\	(8e\L
.	.	.	8f\)
4C/	8G/L	4c\	8g\
.	8G/J	.	8e\J
4FF/	(8A/L	4c\	(8f\L
.	8G/)	.	8e\)
4FF/	8F/	4A/	8d\
.	8E/J	.	8c\J
=13	=13	=13	=13
4GG/	(8D/L	4G/	(8B\L
.	8C/J)	.	8A\)
4GG/	4D/	4G/	8c\
.	.	.	8B\J
4C/	4E/	4G/	4c\
8E\L	8C/L	4c\	8g\L
8D\J	8D/J	.	8f\J
=14	=14	=14	=14
4C/	(8E/L	4c\	4e\
.	8F/J)	.	.
8BB/L	4G/	8G/L	8d\L
8AA/J	.	8A/J	8c\J
4GG/	4G/	4B\	4d\
4GG/	4D/	4B\	8g\L
.	.	.	8f\J
=15	=15	=15	=15
4C/	4E/	4c\	4e\
4GG/	8E/L	4B\	4d\
.	8F/J	.	.
4C/	4G/	4c\	4c\
8E\L	8C/L	4c\	8g\L
8D\J	8D/J	.	8f\J
=16	=16	=16	=16
4C/	(8E/L	4c\	4e\
.	8F/J)	.	.
8BB/L	4G/	8G/L	8d\L
8AA/J	.	8A/J	8c\J
4GG/	4G/	4B\	4d\
4GG/	4D/	4B\	8g\L
.	.	.	8f\J
=17	=17	=17	=17
4C/	(8E/L	8G/	4e\
.	8F/J)	4c\	.
4GG/	4G/	.	4d\
.	.	8B\	.
2C/	2E/	2c\	2c\
=:|!	=:|!	=:|!	=:|!
*-	*-	*-	*-
!!!ENC: Craig Stuart Sapp
!!!END: 2004/03/18/
